img/svg/mailing-icons/clip-ico.svg

<svg width="22" height="22" viewBox="0 0 22 22" fill="none" xmlns="http://www.w3.org/2000/svg">
<g clip-path="url(#clip0)">
<path d="M18.0856 9.35211C17.7448 9.0221 17.2009 9.03083 16.8708 9.3717L8.39126 18.1294C7.62362 18.9045 6.6524 19.3314 5.65604 19.3316C4.66002 19.3316 3.71453 18.9085 2.92296 18.1082C1.0701 16.2348 1.5874 14.0345 2.92245 12.6843L11.389 4.21956C11.7246 3.88411 11.7246 3.34016 11.3892 3.00462C11.0537 2.66908 10.5098 2.66903 10.1742 3.00449L1.706 11.4708L1.70278 11.4741C0.640843 12.5472 0.0367876 13.9003 0.00168202 15.2842C-0.0357438 16.7599 0.552027 18.1542 1.70136 19.3164C2.8069 20.4342 4.21112 21.0498 5.65552 21.0498C7.11578 21.0496 8.52288 20.4403 9.61617 19.3342L18.1052 10.5669C18.4352 10.226 18.4265 9.68211 18.0856 9.35211Z" fill="#4C51CC"/>
<path d="M20.7837 2.17592C19.99 1.37331 19.0347 0.950195 18.0184 0.950195C18.0026 0.950195 17.9867 0.950281 17.9709 0.950496C17.0022 0.963043 16.0519 1.37468 15.2948 2.10949L15.2877 2.11641L5.46051 12.1076C4.47726 13.1012 4.477 14.5437 5.45991 15.5376C5.93657 16.0195 6.54462 16.2849 7.17214 16.2849C7.80726 16.2848 8.41961 16.0195 8.8988 15.5347L15.691 8.59568C16.0229 8.25662 16.0171 7.71272 15.678 7.38078C15.339 7.04889 14.795 7.05469 14.4631 7.39376L7.67384 14.3298C7.5228 14.4825 7.3447 14.5667 7.17214 14.5667C7.00237 14.5667 6.83728 14.4869 6.68147 14.3294C6.22923 13.8721 6.531 13.4685 6.68358 13.3143L16.4982 3.33591C17.4361 2.43107 18.6379 2.44968 19.5621 3.38416C20.6577 4.4919 20.3594 5.78458 19.578 6.57434C19.2442 6.91156 19.2471 7.45551 19.5843 7.78929C19.9216 8.12307 20.4655 8.1201 20.7992 7.78293C21.5532 7.021 21.9795 6.05231 21.9993 5.05548C22.02 4.01211 21.5883 2.9895 20.7837 2.17592Z" fill="#4C51CC"/>
</g>
<defs>
<clipPath id="clip0">
<rect width="22" height="22" fill="white"/>
</clipPath>
</defs>
</svg>

<svg width="22" height="22" fill="none" xmlns="http://www.w3.org/2000/svg"><g clip-path="url(#clip0)" fill="#4C51CC"><path d="M18.086 9.352a.86.86 0 00-1.215.02l-8.48 8.757c-.767.775-1.739 1.202-2.735 1.203-.996 0-1.941-.424-2.733-1.224-1.853-1.873-1.336-4.074 0-5.424l8.466-8.464a.86.86 0 10-1.215-1.216l-8.468 8.467-.003.003C.64 12.547.037 13.9.002 15.284c-.038 1.476.55 2.87 1.7 4.032 1.105 1.118 2.51 1.734 3.954 1.734 1.46 0 2.867-.61 3.96-1.716l8.49-8.767a.86.86 0 00-.02-1.215z"/><path d="M20.784 2.176C19.99 1.373 19.034.95 18.018.95h-.047c-.969.013-1.92.425-2.676 1.16l-.007.006-9.827 9.992c-.984.993-.984 2.436-.001 3.43.477.482 1.085.747 1.712.747.635 0 1.248-.265 1.727-.75l6.792-6.94a.86.86 0 10-1.228-1.201l-6.79 6.936c-.15.152-.328.237-.5.237-.17 0-.336-.08-.492-.238-.452-.457-.15-.86.003-1.015l9.814-9.978c.938-.905 2.14-.886 3.064.048 1.096 1.108.797 2.4.016 3.19a.86.86 0 101.221 1.209c.754-.762 1.18-1.73 1.2-2.728.021-1.043-.41-2.065-1.215-2.88z"/></g><defs><clipPath id="clip0"><path fill="#fff" d="M0 0h22v22H0z"/></clipPath></defs></svg>
